assets/Japanese discount button/Flat/japanese_discount_button_flat.svg

<svg width="32" height="32" viewBox="0 0 32 32" fill="none" xmlns="http://www.w3.org/2000/svg">
<path d="M2 6C2 3.79086 3.79086 2 6 2H26C28.2091 2 30 3.79086 30 6V26C30 28.2091 28.2091 30 26 30H6C3.79086 30 2 28.2091 2 26V6Z" fill="#F92F60"/>
<path d="M12.5 4C11.9477 4 11.5 4.44772 11.5 5V5.875C11.5 5.94404 11.444 6 11.375 6H7C6.44772 6 6 6.44772 6 7V9C6 9.55228 6.44772 10 7 10C7.55228 10 8 9.55228 8 9V8.125C8 8.05596 8.05596 8 8.125 8H16.875C16.944 8 17 8.05596 17 8.125V9C17 9.55228 17.4477 10 18 10C18.5523 10 19 9.55228 19 9V7C19 6.44772 18.5523 6 18 6H13.625C13.556 6 13.5 5.94404 13.5 5.875V5C13.5 4.44772 13.0523 4 12.5 4Z" fill="white"/>
<path d="M11.375 10C11.444 10 11.4992 9.94376 11.5077 9.87525C11.5691 9.38184 11.99 9 12.5 9C13.01 9 13.4309 9.38184 13.4923 9.87525C13.5008 9.94376 13.556 10 13.625 10H16C16.5523 10 17 10.4477 17 11C17 11.5523 16.5523 12 16 12H13.625C13.556 12 13.5 12.056 13.5 12.125V13.875C13.5 13.944 13.556 14 13.625 14H17C17.5523 14 18 14.4477 18 15C18 15.5523 17.5523 16 17 16H13.625C13.556 16 13.5 16.056 13.5 16.125V17.875C13.5 17.944 13.556 18 13.625 18H18C18.5523 18 19 18.4477 19 19C19 19.5523 18.5523 20 18 20H7C6.44772 20 6 19.5523 6 19C6 18.4477 6.44772 18 7 18H11.375C11.444 18 11.5 17.944 11.5 17.875V16.125C11.5 16.056 11.444 16 11.375 16H8C7.44772 16 7 15.5523 7 15C7 14.4477 7.44772 14 8 14H11.375C11.444 14 11.5 13.944 11.5 13.875V12.125C11.5 12.056 11.444 12 11.375 12H9C8.44772 12 8 11.5523 8 11C8 10.4477 8.44772 10 9 10L11.375 10Z" fill="white"/>
<path d="M18.5 21H6.5C6.22386 21 6 21.2239 6 21.5V26C6 26.5523 6.44772 27 7 27C7.51004 27 7.93089 26.6182 7.99229 26.1248C8.00082 26.0562 8.05596 26 8.125 26H16.875C16.944 26 16.9992 26.0562 17.0077 26.1248C17.0691 26.6182 17.49 27 18 27C18.5523 27 19 26.5523 19 26V21.5C19 21.2239 18.7761 21 18.5 21ZM16.875 23C16.944 23 17 23.056 17 23.125V23.875C17 23.944 16.944 24 16.875 24H8.125C8.05596 24 8 23.944 8 23.875V23.125C8 23.056 8.05596 23 8.125 23H16.875Z" fill="white"/>
<path d="M26 6C25.4477 6 25 6.44772 25 7V24.5C25 24.7761 24.7761 25 24.5 25H23C22.4477 25 22 25.4477 22 26C22 26.5523 22.4477 27 23 27H25C26.0174 27 26.8574 26.2403 26.9836 25.2572C26.9841 25.2531 26.9876 25.25 26.9918 25.25C26.9963 25.25 27 25.2463 27 25.2418V7C27 6.44772 26.5523 6 26 6Z" fill="white"/>
<path d="M21 9C21 8.44772 21.4477 8 22 8C22.5523 8 23 8.44772 23 9V22C23 22.5523 22.5523 23 22 23C21.4477 23 21 22.5523 21 22V9Z" fill="white"/>
</svg>

<svg xmlns="http://www.w3.org/2000/svg" width="32" height="32" fill="none"><path fill="#F92F60" d="M2 6a4 4 0 0 1 4-4h20a4 4 0 0 1 4 4v20a4 4 0 0 1-4 4H6a4 4 0 0 1-4-4V6Z"/><path fill="#fff" d="M12.5 4a1 1 0 0 0-1 1v.875a.125.125 0 0 1-.125.125H7a1 1 0 0 0-1 1v2a1 1 0 0 0 2 0v-.875C8 8.056 8.056 8 8.125 8h8.75c.069 0 .125.056.125.125V9a1 1 0 1 0 2 0V7a1 1 0 0 0-1-1h-4.375a.125.125 0 0 1-.125-.125V5a1 1 0 0 0-1-1Z"/><path fill="#fff" d="M11.375 10c.069 0 .124-.056.133-.125a1 1 0 0 1 1.984 0c.009.069.064.125.133.125H16a1 1 0 1 1 0 2h-2.375a.125.125 0 0 0-.125.125v1.75c0 .069.056.125.125.125H17a1 1 0 1 1 0 2h-3.375a.125.125 0 0 0-.125.125v1.75c0 .069.056.125.125.125H18a1 1 0 1 1 0 2H7a1 1 0 1 1 0-2h4.375a.125.125 0 0 0 .125-.125v-1.75a.125.125 0 0 0-.125-.125H8a1 1 0 1 1 0-2h3.375a.125.125 0 0 0 .125-.125v-1.75a.125.125 0 0 0-.125-.125H9a1 1 0 1 1 0-2h2.375ZM18.5 21h-12a.5.5 0 0 0-.5.5V26a1 1 0 0 0 1.992.125c.009-.069.064-.125.133-.125h8.75c.069 0 .124.056.133.125A1 1 0 0 0 19 26v-4.5a.5.5 0 0 0-.5-.5Zm-1.625 2c.069 0 .125.056.125.125v.75a.125.125 0 0 1-.125.125h-8.75A.125.125 0 0 1 8 23.875v-.75c0-.069.056-.125.125-.125h8.75ZM26 6a1 1 0 0 0-1 1v17.5a.5.5 0 0 1-.5.5H23a1 1 0 1 0 0 2h2a2 2 0 0 0 1.984-1.743c0-.004.004-.007.008-.007a.008.008 0 0 0 .008-.008V7a1 1 0 0 0-1-1Z"/><path fill="#fff" d="M21 9a1 1 0 1 1 2 0v13a1 1 0 1 1-2 0V9Z"/></svg>
